src/pages/elements/images/this-is-uncomfortable-mobile.svg

<?xml version="1.0" encoding="UTF-8"?>
<svg width="288px" height="144px" viewBox="0 0 288 144" version="1.1" xmlns="http://www.w3.org/2000/svg" xmlns:xlink="http://www.w3.org/1999/xlink">
    <!-- Generator: Sketch 51.2 (57519) - http://www.bohemiancoding.com/sketch -->
    <title>This is uncomfortable_Mobile</title>
    <desc>Created with Sketch.</desc>
    <defs></defs>
    <g id="Page-1" stroke="none" stroke-width="1" fill="none" fill-rule="evenodd">
        <g id="Typography_Mobile_320px-Copy-2" transform="translate(-16.000000, -311.000000)">
            <g id="This-is-uncomfortable_Mobile" transform="translate(16.000000, 311.000000)">
                <rect id="Rectangle-16-Copy-168" fill="#FFFFFF" x="0" y="0" width="288" height="144"></rect>
                <path d="M37.2,66.024 L31.872,66.024 L31.872,81 L29.856,81 L29.856,66.024 L24.528,66.024 L24.528,64.248 L37.2,64.248 L37.2,66.024 Z M39.1013334,81 L39.1013334,63.24 L41.0213334,63.24 L41.0213334,70.632 L41.1173334,70.632 C41.7173334,69.24 42.7733334,68.328 44.6213334,68.328 C47.1653334,68.328 48.7733334,70.056 48.7733334,73.056 L48.7733334,81 L46.8533334,81 L46.8533334,73.392 C46.8533334,71.184 45.8933334,70.056 44.0453334,70.056 C42.5093334,70.056 41.0213334,70.824 41.0213334,72.408 L41.0213334,81 L39.1013334,81 Z M53.0266668,65.712 C52.2106668,65.712 51.8506668,65.28 51.8506668,64.632 L51.8506668,64.32 C51.8506668,63.672 52.2106668,63.24 53.0266668,63.24 C53.8426668,63.24 54.2026668,63.672 54.2026668,64.32 L54.2026668,64.632 C54.2026668,65.28 53.8426668,65.712 53.0266668,65.712 Z M52.0666668,81 L52.0666668,68.616 L53.9866668,68.616 L53.9866668,81 L52.0666668,81 Z M61.1200002,81.288 C58.8400002,81.288 57.3280002,80.328 56.2240002,78.864 L57.5920002,77.76 C58.5520002,78.96 59.7040002,79.656 61.2640002,79.656 C62.8960002,79.656 63.8560002,78.912 63.8560002,77.64 C63.8560002,76.68 63.3280002,75.936 61.6960002,75.696 L60.7120002,75.552 C58.4320002,75.216 56.7280002,74.28 56.7280002,71.976 C56.7280002,69.528 58.6240002,68.328 61.1440002,68.328 C63.1360002,68.328 64.4560002,69.072 65.4640002,70.32 L64.1920002,71.472 C63.6400002,70.704 62.5840002,69.96 61.0000002,69.96 C59.4160002,69.96 58.5760002,70.704 58.5760002,71.88 C58.5760002,73.08 59.4160002,73.56 60.9520002,73.8 L61.9120002,73.944 C64.6480002,74.352 65.7040002,75.552 65.7040002,77.424 C65.7040002,79.824 63.9520002,81.288 61.1200002,81.288 Z M74.378667,65.712 C73.562667,65.712 73.202667,65.28 73.202667,64.632 L73.202667,64.32 C73.202667,63.672 73.562667,63.24 74.378667,63.24 C75.194667,63.24 75.554667,63.672 75.554667,64.32 L75.554667,64.632 C75.554667,65.28 75.194667,65.712 74.378667,65.712 Z M73.418667,81 L73.418667,68.616 L75.338667,68.616 L75.338667,81 L73.418667,81 Z M82.4720004,81.288 C80.1920004,81.288 78.6800004,80.328 77.5760004,78.864 L78.9440004,77.76 C79.9040004,78.96 81.0560004,79.656 82.6160004,79.656 C84.2480004,79.656 85.2080004,78.912 85.2080004,77.64 C85.2080004,76.68 84.6800004,75.936 83.0480004,75.696 L82.0640004,75.552 C79.7840004,75.216 78.0800004,74.28 78.0800004,71.976 C78.0800004,69.528 79.9760004,68.328 82.4960004,68.328 C84.4880004,68.328 85.8080004,69.072 86.8160004,70.32 L85.5440004,71.472 C84.9920004,70.704 83.9360004,69.96 82.3520004,69.96 C80.7680004,69.96 79.9280004,70.704 79.9280004,71.88 C79.9280004,73.08 80.7680004,73.56 82.3040004,73.8 L83.2640004,73.944 C86.0000004,74.352 87.0560004,75.552 87.0560004,77.424 C87.0560004,79.824 85.3040004,81.288 82.4720004,81.288 Z M102.402667,81 L102.402667,78.984 L102.306667,78.984 C101.826667,80.16 100.890667,81.288 98.8266672,81.288 C96.2826672,81.288 94.6506672,79.56 94.6506672,76.56 L94.6506672,68.616 L96.5706672,68.616 L96.5706672,76.224 C96.5706672,78.432 97.5546672,79.56 99.4026672,79.56 C100.914667,79.56 102.402667,78.816 102.402667,77.184 L102.402667,68.616 L104.322667,68.616 L104.322667,81 L102.402667,81 Z M109.656001,81 L107.736001,81 L107.736001,68.616 L109.656001,68.616 L109.656001,70.632 L109.752001,70.632 C110.352001,69.24 111.408001,68.328 113.256001,68.328 C115.800001,68.328 117.408001,70.056 117.408001,73.056 L117.408001,81 L115.488001,81 L115.488001,73.392 C115.488001,71.184 114.528001,70.056 112.680001,70.056 C111.144001,70.056 109.656001,70.824 109.656001,72.408 L109.656001,81 Z M125.309334,81.288 C121.829334,81.288 119.789334,78.768 119.789334,74.808 C119.789334,70.848 121.829334,68.328 125.309334,68.328 C127.757334,68.328 129.221334,69.528 129.941334,71.232 L128.333334,72.048 C127.877334,70.776 126.821334,70.032 125.309334,70.032 C123.029334,70.032 121.853334,71.592 121.853334,73.752 L121.853334,75.864 C121.853334,78.024 123.029334,79.584 125.309334,79.584 C126.869334,79.584 127.997334,78.84 128.669334,77.424 L130.061334,78.36 C129.269334,80.136 127.661334,81.288 125.309334,81.288 Z M136.642667,81.288 C133.330667,81.288 131.050667,78.744 131.050667,74.808 C131.050667,70.872 133.330667,68.328 136.642667,68.328 C139.954667,68.328 142.234667,70.872 142.234667,74.808 C142.234667,78.744 139.954667,81.288 136.642667,81.288 Z M136.642667,79.584 C138.706667,79.584 140.170667,78.312 140.170667,75.696 L140.170667,73.92 C140.170667,71.304 138.706667,70.032 136.642667,70.032 C134.578667,70.032 133.114667,71.304 133.114667,73.92 L133.114667,75.696 C133.114667,78.312 134.578667,79.584 136.642667,79.584 Z M146.656001,81 L144.736001,81 L144.736001,68.616 L146.656001,68.616 L146.656001,70.632 L146.752001,70.632 C147.304001,69.36 148.168001,68.328 150.088001,68.328 C151.720001,68.328 153.208001,69.072 153.880001,70.848 L153.928001,70.848 C154.384001,69.504 155.584001,68.328 157.696001,68.328 C160.216001,68.328 161.728001,70.056 161.728001,73.056 L161.728001,81 L159.808001,81 L159.808001,73.392 C159.808001,71.208 158.968001,70.056 157.096001,70.056 C155.584001,70.056 154.192001,70.824 154.192001,72.408 L154.192001,81 L152.272001,81 L152.272001,73.392 C152.272001,71.184 151.432001,70.056 149.608001,70.056 C148.096001,70.056 146.656001,70.824 146.656001,72.408 L146.656001,81 Z M165.693334,81 L165.693334,70.296 L163.677334,70.296 L163.677334,68.616 L165.693334,68.616 L165.693334,66.12 C165.693334,64.416 166.581334,63.24 168.405334,63.24 L170.277334,63.24 L170.277334,64.92 L167.613334,64.92 L167.613334,68.616 L170.277334,68.616 L170.277334,70.296 L167.613334,70.296 L167.613334,81 L165.693334,81 Z M176.714668,81.288 C173.402668,81.288 171.122668,78.744 171.122668,74.808 C171.122668,70.872 173.402668,68.328 176.714668,68.328 C180.026668,68.328 182.306668,70.872 182.306668,74.808 C182.306668,78.744 180.026668,81.288 176.714668,81.288 Z M176.714668,79.584 C178.778668,79.584 180.242668,78.312 180.242668,75.696 L180.242668,73.92 C180.242668,71.304 178.778668,70.032 176.714668,70.032 C174.650668,70.032 173.186668,71.304 173.186668,73.92 L173.186668,75.696 C173.186668,78.312 174.650668,79.584 176.714668,79.584 Z M186.728001,81 L184.808001,81 L184.808001,68.616 L186.728001,68.616 L186.728001,70.896 L186.848001,70.896 C187.280001,69.72 188.408001,68.616 190.424001,68.616 L191.168001,68.616 L191.168001,70.536 L190.040001,70.536 C187.976001,70.536 186.728001,71.424 186.728001,72.6 L186.728001,81 Z M198.181334,81 L195.781334,81 C194.461334,81 193.741334,80.16 193.741334,78.96 L193.741334,70.296 L191.701334,70.296 L191.701334,68.616 L192.853334,68.616 C193.669334,68.616 193.933334,68.328 193.933334,67.488 L193.933334,65.184 L195.661334,65.184 L195.661334,68.616 L198.373334,68.616 L198.373334,70.296 L195.661334,70.296 L195.661334,79.32 L198.181334,79.32 L198.181334,81 Z M210.882668,81 L209.802668,81 C208.386668,81 207.810668,80.136 207.666668,78.984 L207.546668,78.984 C207.018668,80.496 205.698668,81.288 203.970668,81.288 C201.354668,81.288 199.818668,79.848 199.818668,77.544 C199.818668,75.216 201.498668,73.92 205.098668,73.92 L207.546668,73.92 L207.546668,72.696 C207.546668,70.944 206.586668,69.984 204.618668,69.984 C203.130668,69.984 202.146668,70.704 201.474668,71.832 L200.322668,70.752 C200.994668,69.432 202.482668,68.328 204.714668,68.328 C207.690668,68.328 209.466668,69.888 209.466668,72.504 L209.466668,79.32 L210.882668,79.32 L210.882668,81 Z M204.282668,79.656 C206.178668,79.656 207.546668,78.672 207.546668,77.4 L207.546668,75.36 L205.002668,75.36 C202.818668,75.36 201.834668,76.032 201.834668,77.232 L201.834668,77.736 C201.834668,78.96 202.794668,79.656 204.282668,79.656 Z M212.952001,81 L212.952001,63.24 L214.872001,63.24 L214.872001,70.632 L214.968001,70.632 C215.616001,69.072 216.888001,68.328 218.592001,68.328 C221.688001,68.328 223.632001,70.848 223.632001,74.808 C223.632001,78.768 221.688001,81.288 218.592001,81.288 C216.888001,81.288 215.712001,80.52 214.968001,78.984 L214.872001,78.984 L214.872001,81 L212.952001,81 Z M218.064001,79.56 C220.224001,79.56 221.568001,78.072 221.568001,75.864 L221.568001,73.752 C221.568001,71.544 220.224001,70.056 218.064001,70.056 C216.312001,70.056 214.872001,71.064 214.872001,72.432 L214.872001,77.04 C214.872001,78.648 216.312001,79.56 218.064001,79.56 Z M229.949335,81 L228.245335,81 C226.925335,81 226.205335,80.16 226.205335,79.008 L226.205335,63.24 L228.125335,63.24 L228.125335,79.32 L229.949335,79.32 L229.949335,81 Z M236.722668,81.288 C233.362668,81.288 231.154668,78.744 231.154668,74.808 C231.154668,70.872 233.362668,68.328 236.722668,68.328 C240.034668,68.328 242.074668,70.872 242.074668,74.376 L242.074668,75.288 L233.170668,75.288 L233.170668,75.864 C233.170668,78 234.538668,79.608 236.842668,79.608 C238.402668,79.608 239.602668,78.84 240.250668,77.472 L241.618668,78.456 C240.826668,80.136 239.050668,81.288 236.722668,81.288 Z M236.722668,69.936 C234.634668,69.936 233.170668,71.52 233.170668,73.68 L233.170668,73.848 L240.010668,73.848 L240.010668,73.584 C240.010668,71.4 238.690668,69.936 236.722668,69.936 Z M245.320001,81.288 C244.312001,81.288 243.856001,80.712 243.856001,79.896 L243.856001,79.584 C243.856001,78.768 244.312001,78.192 245.320001,78.192 C246.328001,78.192 246.784001,78.768 246.784001,79.584 L246.784001,79.896 C246.784001,80.712 246.328001,81.288 245.320001,81.288 Z" id="This-is-uncomfortabl" fill="#3D3D3D"></path>
            </g>
        </g>
    </g>
</svg>

<svg xmlns="http://www.w3.org/2000/svg" viewBox="0 0 288 144"><g fill="none" fill-rule="evenodd"><path fill="#FFF" d="M0 0h288v144H0z"/><path d="M37.2 66.024h-5.328V81h-2.016V66.024h-5.328v-1.776H37.2v1.776zM39.101 81V63.24h1.92v7.392h.096c.6-1.392 1.656-2.304 3.504-2.304 2.544 0 4.152 1.728 4.152 4.728V81h-1.92v-7.608c0-2.208-.96-3.336-2.808-3.336-1.536 0-3.024.768-3.024 2.352V81h-1.92zm13.926-15.288c-.816 0-1.176-.432-1.176-1.08v-.312c0-.648.36-1.08 1.176-1.08s1.176.432 1.176 1.08v.312c0 .648-.36 1.08-1.176 1.08zM52.067 81V68.616h1.92V81h-1.92zm9.053.288c-2.28 0-3.792-.96-4.896-2.424l1.368-1.104c.96 1.2 2.112 1.896 3.672 1.896 1.632 0 2.592-.744 2.592-2.016 0-.96-.528-1.704-2.16-1.944l-.984-.144c-2.28-.336-3.984-1.272-3.984-3.576 0-2.448 1.896-3.648 4.416-3.648 1.992 0 3.312.744 4.32 1.992l-1.272 1.152c-.552-.768-1.608-1.512-3.192-1.512s-2.424.744-2.424 1.92c0 1.2.84 1.68 2.376 1.92l.96.144c2.736.408 3.792 1.608 3.792 3.48 0 2.4-1.752 3.864-4.584 3.864zm13.259-15.576c-.816 0-1.176-.432-1.176-1.08v-.312c0-.648.36-1.08 1.176-1.08s1.176.432 1.176 1.08v.312c0 .648-.36 1.08-1.176 1.08zM73.419 81V68.616h1.92V81h-1.92zm9.053.288c-2.28 0-3.792-.96-4.896-2.424l1.368-1.104c.96 1.2 2.112 1.896 3.672 1.896 1.632 0 2.592-.744 2.592-2.016 0-.96-.528-1.704-2.16-1.944l-.984-.144c-2.28-.336-3.984-1.272-3.984-3.576 0-2.448 1.896-3.648 4.416-3.648 1.992 0 3.312.744 4.32 1.992l-1.272 1.152c-.552-.768-1.608-1.512-3.192-1.512s-2.424.744-2.424 1.92c0 1.2.84 1.68 2.376 1.92l.96.144c2.736.408 3.792 1.608 3.792 3.48 0 2.4-1.752 3.864-4.584 3.864zm19.93-.288v-2.016h-.095c-.48 1.176-1.416 2.304-3.48 2.304-2.544 0-4.176-1.728-4.176-4.728v-7.944h1.92v7.608c0 2.208.984 3.336 2.832 3.336 1.512 0 3-.744 3-2.376v-8.568h1.92V81h-1.92zm7.254 0h-1.92V68.616h1.92v2.016h.096c.6-1.392 1.656-2.304 3.504-2.304 2.544 0 4.152 1.728 4.152 4.728V81h-1.92v-7.608c0-2.208-.96-3.336-2.808-3.336-1.536 0-3.024.768-3.024 2.352V81zm15.653.288c-3.48 0-5.52-2.52-5.52-6.48 0-3.96 2.04-6.48 5.52-6.48 2.448 0 3.912 1.2 4.632 2.904l-1.608.816c-.456-1.272-1.512-2.016-3.024-2.016-2.28 0-3.456 1.56-3.456 3.72v2.112c0 2.16 1.176 3.72 3.456 3.72 1.56 0 2.688-.744 3.36-2.16l1.392.936c-.792 1.776-2.4 2.928-4.752 2.928zm11.334 0c-3.312 0-5.592-2.544-5.592-6.48 0-3.936 2.28-6.48 5.592-6.48s5.592 2.544 5.592 6.48c0 3.936-2.28 6.48-5.592 6.48zm0-1.704c2.064 0 3.528-1.272 3.528-3.888V73.92c0-2.616-1.464-3.888-3.528-3.888s-3.528 1.272-3.528 3.888v1.776c0 2.616 1.464 3.888 3.528 3.888zM146.656 81h-1.92V68.616h1.92v2.016h.096c.552-1.272 1.416-2.304 3.336-2.304 1.632 0 3.12.744 3.792 2.52h.048c.456-1.344 1.656-2.52 3.768-2.52 2.52 0 4.032 1.728 4.032 4.728V81h-1.92v-7.608c0-2.184-.84-3.336-2.712-3.336-1.512 0-2.904.768-2.904 2.352V81h-1.92v-7.608c0-2.208-.84-3.336-2.664-3.336-1.512 0-2.952.768-2.952 2.352V81zm19.037 0V70.296h-2.016v-1.68h2.016V66.12c0-1.704.888-2.88 2.712-2.88h1.872v1.68h-2.664v3.696h2.664v1.68h-2.664V81h-1.92zm11.022.288c-3.312 0-5.592-2.544-5.592-6.48 0-3.936 2.28-6.48 5.592-6.48s5.592 2.544 5.592 6.48c0 3.936-2.28 6.48-5.592 6.48zm0-1.704c2.064 0 3.528-1.272 3.528-3.888V73.92c0-2.616-1.464-3.888-3.528-3.888s-3.528 1.272-3.528 3.888v1.776c0 2.616 1.464 3.888 3.528 3.888zM186.728 81h-1.92V68.616h1.92v2.28h.12c.432-1.176 1.56-2.28 3.576-2.28h.744v1.92h-1.128c-2.064 0-3.312.888-3.312 2.064V81zm11.453 0h-2.4c-1.32 0-2.04-.84-2.04-2.04v-8.664h-2.04v-1.68h1.152c.816 0 1.08-.288 1.08-1.128v-2.304h1.728v3.432h2.712v1.68h-2.712v9.024h2.52V81zm12.702 0h-1.08c-1.416 0-1.992-.864-2.136-2.016h-.12c-.528 1.512-1.848 2.304-3.576 2.304-2.616 0-4.152-1.44-4.152-3.744 0-2.328 1.68-3.624 5.28-3.624h2.448v-1.224c0-1.752-.96-2.712-2.928-2.712-1.488 0-2.472.72-3.144 1.848l-1.152-1.08c.672-1.32 2.16-2.424 4.392-2.424 2.976 0 4.752 1.56 4.752 4.176v6.816h1.416V81zm-6.6-1.344c1.896 0 3.264-.984 3.264-2.256v-2.04h-2.544c-2.184 0-3.168.672-3.168 1.872v.504c0 1.224.96 1.92 2.448 1.92zM212.952 81V63.24h1.92v7.392h.096c.648-1.56 1.92-2.304 3.624-2.304 3.096 0 5.04 2.52 5.04 6.48 0 3.96-1.944 6.48-5.04 6.48-1.704 0-2.88-.768-3.624-2.304h-.096V81h-1.92zm5.112-1.44c2.16 0 3.504-1.488 3.504-3.696v-2.112c0-2.208-1.344-3.696-3.504-3.696-1.752 0-3.192 1.008-3.192 2.376v4.608c0 1.608 1.44 2.52 3.192 2.52zM229.949 81h-1.704c-1.32 0-2.04-.84-2.04-1.992V63.24h1.92v16.08h1.824V81zm6.774.288c-3.36 0-5.568-2.544-5.568-6.48 0-3.936 2.208-6.48 5.568-6.48 3.312 0 5.352 2.544 5.352 6.048v.912h-8.904v.576c0 2.136 1.368 3.744 3.672 3.744 1.56 0 2.76-.768 3.408-2.136l1.368.984c-.792 1.68-2.568 2.832-4.896 2.832zm0-11.352c-2.088 0-3.552 1.584-3.552 3.744v.168h6.84v-.264c0-2.184-1.32-3.648-3.288-3.648zm8.597 11.352c-1.008 0-1.464-.576-1.464-1.392v-.312c0-.816.456-1.392 1.464-1.392s1.464.576 1.464 1.392v.312c0 .816-.456 1.392-1.464 1.392z" fill="#3D3D3D"/></g></svg>
